X:2867
T:Down in the valley
C:anon.
O:USA
R:Waltz
Z:Transcribed by Frank Nordberg - http://www.musicaviva.com
F:http://abc.musicaviva.com/tunes/usa/down-in-the-valley.abc
M:3/4
L:1/4
K:F
CFG|A3|F3-|F z z|AGF|G3-|G3-|G z z|
CEG|B3|G3-|G z z|EFG|F3-|F3-|F z z|]
W:
W:
W:  From Musica Viva - http://www.musicaviva.com
W:  the Internet center for free sheet music downloads.
